X:1651
T:Fetpolskan
R:Polska
C:Jonas Olsson
Z:Erik Ronström 2009-09-17
M:3/4 
L:1/16 
K:Ador
e2fe d2de c2A2|z2(f2 f2)gf e2d2|c2Bc d2cd e2de|f2d2 e4 B4|
e2fe d2de c2A2|z2(f2 f2)gf e2d2|c2Bc d2cd e2c2|B2c2 A8:| 
|:f2dd d2df a2^gf|^g2fg e4 B4 |f2dd d2df a2^gf|^gfga b2g2 e2fg|
a4 =g4 e4 |1 d2f2 e8:|2 d2f2 e6 B2|c2Bc d2cd e2c2|B2c2 A8|]
(:musicend:)


(:music:)
